src/components/Icon/assets/bookmark.svg

<svg xmlns="http://www.w3.org/2000/svg" width="24" height="24" viewBox="0 0 24 24">
    <path fill="#65676A" fill-rule="evenodd" d="M5.964 3.047v17.308L12 15.113l6.036 5.242V3.047H5.964zm-.495 19.906c-.211 0-.425-.045-.628-.138-.541-.247-.877-.769-.877-1.364V2.547c0-.827.673-1.5 1.5-1.5h13.072c.827 0 1.5.673 1.5 1.5V21.45c0 .595-.337 1.118-.878 1.365-.541.247-1.156.158-1.606-.231L12 17.762l-5.552 4.821c-.281.244-.627.37-.979.37z"/>
</svg>

<svg width="24" height="24" viewBox="0 0 24 24" fill="none" xmlns="http://www.w3.org/2000/svg">
<path fill-rule="evenodd" clip-rule="evenodd" d="M5.964 3.047V20.355L12 15.113L18.036 20.355V3.047H5.964ZM5.469 22.953C5.258 22.953 5.044 22.908 4.841 22.815C4.3 22.568 3.964 22.046 3.964 21.451V2.547C3.964 1.72 4.637 1.047 5.464 1.047H18.536C19.363 1.047 20.036 1.72 20.036 2.547V21.45C20.036 22.045 19.699 22.568 19.158 22.815C18.617 23.062 18.002 22.973 17.552 22.584L12 17.762L6.448 22.583C6.167 22.827 5.821 22.953 5.469 22.953V22.953Z" fill="#65676A"/>
</svg>
